!!!OTL: OB ICH GLEICH EIN SCHAEFER BIN
!!!ARE: Europa, Mitteleuropa, Deutschland, Hessen, Dillenburg; Westerwald
!!!SCT: E1487
!!!YEM: Copyright 1995, estate of Helmut Schaffrath.
**kern
*ICvox
*Ivox
*M4/4
*k[f#]
*G:
=1
{4.g
8b
4dd
4dd
=2
4ee
4ee
4dd
4r}
=3
{4.cc
8dd
4b
4g
=4
4a
4a
4g
4r}
=5
{4dd
4dd
4cc
4cc
=6
4b
8dd
8b
4a
4a}
=7
{4dd
4dd
4cc
4cc
=8
4b
8dd
8b
4a
4a}
=9
{4.g
8b
4dd
4dd
=10
4ee
4ee
2dd}
=11
{4cc
4a
4b
4g
=12
4a
4f#
4g
4r}
==
!!!AGN: Staende - Lied, Hirten -,  Schaefer - Lied
!!!ONB: ESAC (Essen Associative Code) Database: ERK3
!!!AMT: simple quadruple
!!!AIN: vox
!!!EED: Helmut Schaffrath
!!!EEV: 1.0
*-
